X: 11466
T: Echo Falls
R: jig
M: 6/8
K: Fdorian
K:F#m
|:FAc Bce|fec B2c|~A3 ABc|ecB AFE|FAc Bce|fef ~a3|fec ~e3|1 fec BAB:|2 fec Bce||
~f3 fec|fef ~a2 f|ecB cAE|FAc Bce|~f3 fec|fef a2 f|ecB cea|fec Bce||
a3 fec|fef ~a2 f|ecB cAE|FAc Bce|~f3 fec|fef a2 f|ecB efa|fec BAc||

